epam-assets/icon-sources/18/internal-logo/rewards.svg

<svg width="18" height="18" viewBox="0 0 18 18" fill="none" xmlns="http://www.w3.org/2000/svg">
<g id="18/internal-logo/rewards">
<path id="icon" fill-rule="evenodd" clip-rule="evenodd" d="M6.67515 10.0128C6.38245 9.9428 6.08975 9.8478 5.80695 9.73775L5.802 9.74275L3.53473 8.85245C3.5248 8.84745 3.5 8.84245 3.5 8.84245V1.5H9.65185C11.9489 1.5 13.8093 3.37563 13.8093 5.6914C13.8093 7.1519 13.0701 8.4373 11.9489 9.18755L10.53 9.74775C10.1479 9.8978 9.761 10.0079 9.3641 10.0829C8.9672 10.1579 8.5703 10.1929 8.16845 10.1929C7.97 10.1929 7.7666 10.1829 7.56815 10.1629C7.3697 10.1429 7.17125 10.1129 6.9728 10.0779L6.9722 10.0777L6.97217 10.0777C6.87318 10.0578 6.77414 10.0378 6.67515 10.0128ZM10.4109 6.0265C10.4109 4.84112 9.45835 3.8808 8.28255 3.8808C7.10675 3.8808 6.15425 4.84112 6.15425 6.0265C6.15425 7.2119 7.10675 8.1722 8.28255 8.1722C9.45835 8.1722 10.4109 7.2119 10.4109 6.0265ZM5.1223 16.5H3.5V9.79773L5.90615 11.4783L5.1223 16.5ZM10.4209 11.4784L11.2097 16.5001H15L12.326 10.148L10.4209 11.4784ZM6.53625 16.5L7.17625 15.3896C7.61775 14.6244 8.71421 14.6244 9.15576 15.3896L9.79575 16.5H6.53625Z" fill="#6C6F80"/>
</g>
</svg>

<svg xmlns="http://www.w3.org/2000/svg" width="18" height="18" fill="none" viewBox="0 0 18 18">
  <path fill="#6C6F80" fill-rule="evenodd" d="M6.675 10.013a6.723 6.723 0 0 1-.868-.275l-.005.005-2.267-.89a.201.201 0 0 0-.035-.01V1.5h6.152c2.297 0 4.157 1.876 4.157 4.191a4.2 4.2 0 0 1-1.86 3.497l-1.419.56a6.45 6.45 0 0 1-2.362.445c-.198 0-.401-.01-.6-.03a6.185 6.185 0 0 1-.893-.15Zm3.736-3.986A2.137 2.137 0 0 0 8.283 3.88c-1.176 0-2.129.96-2.129 2.146 0 1.185.953 2.145 2.129 2.145 1.175 0 2.128-.96 2.128-2.146ZM5.122 16.5H3.5V9.798l2.406 1.68-.784 5.022Zm5.299-5.022.789 5.022H15l-2.674-6.352-1.905 1.33ZM6.536 16.5l.64-1.11a1.14 1.14 0 0 1 1.98 0l.64 1.11h-3.26Z" clip-rule="evenodd"/>
</svg>
